DVA
CUT[Bu hoscht du hin das Zautle
    lei bes i dir hon gaben ?]
REG[Europa, Mitteleuropa, Deutschland, Gottschee]
KEY[D0085  08  F 4/4]
MEL[-5_  5_.54_5_  3__3_
    5_  4_.45_4_  3__5_0_
    4_.4+1_6_  5_.55_+1_
    7_.65_4_  3__0_ //] >>
FCT[Liebes - Lied]
CMT[Unterstimme in parallelen Terzen, ergaenzt die Skala zur Heptatonik
    (Ionisch) ; erste Zeile rhythmisch korrigiert (Pause)
    Inzipit = Variante zum Lied; DVA-Signatur 85a]
